; generated by PrusaSlicer 2.3.0+win64 on 2021-11-16 at 23:53:09 UTC

; 

; external perimeters extrusion width = 0.45mm
; perimeters extrusion width = 0.45mm
; infill extrusion width = 0.45mm
; solid infill extrusion width = 0.45mm
; top infill extrusion width = 0.40mm
; first layer extrusion width = 0.42mm

M73 P0 R65
M73 Q0 S65
M201 X1000 Y1000 Z200 E5000 ; sets maximum accelerations, mm/sec^2
M203 X200 Y200 Z12 E120 ; sets maximum feedrates, mm/sec
M204 P1250 R1250 T1250 ; sets acceleration (P, T) and retract acceleration (R), mm/sec^2
M205 X8.00 Y8.00 Z0.40 E4.50 ; sets the jerk limits, mm/sec
M205 S0 T0 ; sets the minimum extruding and travel feed rate, mm/sec
M107
;TYPE:Custom
M862.3 P "MK3S" ; printer model check
M862.1 P0.4 ; nozzle diameter check
M115 U3.9.2 ; tell printer latest fw version
G90 ; use absolute coordinates
M83 ; extruder relative mode
M104 S215 ; set extruder temp
M140 S60 ; set bed temp
M190 S60 ; wait for bed temp
M109 S215 ; wait for extruder temp
G28 W ; home all without mesh bed level
G80 ; mesh bed leveling
G1 Y-3.0 F1000.0 ; go outside print area
G92 E0.0
G1 X60.0 E9.0 F1000.0 ; intro line
G1 X100.0 E12.5 F1000.0 ; intro line
G92 E0.0
M221 S95

; Don't change E values below. Excessive value can damage the printer.
M907 E430 ; set extruder motor current
G21 ; set units to millimeters
G90 ; use absolute coordinates
M83 ; use relative distances for extrusion
M900 K0.05 ; Filament gcode LA 1.5
M900 K30 ; Filament gcode LA 1.0
;LAYER_CHANGE
;Z:0.2
;HEIGHT:0.2
;BEFORE_LAYER_CHANGE
G92 E0.0
;0.2


M73 P0 R64
G1 E-0.80000 F2100.000
G1 Z0.400 F10800.000
;AFTER_LAYER_CHANGE
;0.2
G1 X149.350 Y89.466
G1 Z0.200
G1 E0.80000 F2100.000
M204 S1000
;TYPE:Skirt
;WIDTH:0.42
G1 F1200.000
G1 X150.592 Y90.760 E0.05626
G1 X151.745 Y92.067 E0.05463
G1 X152.865 Y93.458 E0.05600
G1 X153.786 Y94.696 E0.04839
G1 X154.699 Y96.032 E0.05073
G1 X155.590 Y97.458 E0.05272
G1 X156.418 Y98.915 E0.05253
G1 X157.185 Y100.404 E0.05253
G1 X157.900 Y101.946 E0.05328
G1 X158.543 Y103.500 E0.05276
G1 X159.113 Y105.057 E0.05197
G1 X159.619 Y106.635 E0.05196
G1 X160.062 Y108.241 E0.05225
G1 X160.441 Y109.873 E0.05253
G1 X160.753 Y111.528 E0.05280
G1 X160.998 Y113.209 E0.05327
G1 X161.168 Y114.858 E0.05198
G1 X161.272 Y116.520 E0.05221
G1 X161.307 Y118.187 E0.05226
G1 X161.273 Y119.877 E0.05302
G1 X161.168 Y121.557 E0.05278
G1 X160.994 Y123.231 E0.05276
G1 X160.754 Y124.879 E0.05222
G1 X160.448 Y126.508 E0.05198
G1 X160.073 Y128.132 E0.05226
G1 X159.629 Y129.748 E0.05255
G1 X159.105 Y131.383 E0.05380
G1 X158.524 Y132.963 E0.05280
G1 X157.813 Y134.660 E0.05768
G1 X157.168 Y136.047 E0.04796
G1 X156.449 Y137.445 E0.04929
G1 X155.624 Y138.900 E0.05244
G1 X154.717 Y140.356 E0.05377
G1 X153.754 Y141.765 E0.05353
G1 X152.687 Y143.186 E0.05571
G1 X151.675 Y144.431 E0.05030
G1 X150.603 Y145.643 E0.05075
G1 X149.478 Y146.818 E0.05099
G1 X148.266 Y147.984 E0.05275
G1 X146.929 Y149.164 E0.05591
G1 X145.521 Y150.296 E0.05664
G1 X144.293 Y151.209 E0.04796
G1 X142.996 Y152.096 E0.04929
G1 X141.578 Y152.983 E0.05244
G1 X140.102 Y153.824 E0.05327
G1 X138.591 Y154.602 E0.05328
G1 X137.049 Y155.317 E0.05329
G1 X135.472 Y155.968 E0.05348
G1 X133.953 Y156.524 E0.05075
G1 X132.404 Y157.021 E0.05099
G1 X130.791 Y157.468 E0.05248
G1 X129.136 Y157.852 E0.05327
G1 X127.466 Y158.168 E0.05330
G1 X125.754 Y158.416 E0.05425
G1 X124.136 Y158.583 E0.05099
G1 X122.521 Y158.684 E0.05075
G1 X120.839 Y158.721 E0.05273
G1 X119.165 Y158.688 E0.05252
G1 X117.453 Y158.583 E0.05378
G1 X115.740 Y158.404 E0.05399
G1 X114.123 Y158.168 E0.05124
G1 X112.532 Y157.869 E0.05076
G1 X110.900 Y157.494 E0.05248
G1 X109.231 Y157.035 E0.05429
G1 X107.589 Y156.508 E0.05405
G1 X106.007 Y155.926 E0.05286
G1 X104.342 Y155.227 E0.05662
G1 X102.955 Y154.582 E0.04796
G1 X101.557 Y153.862 E0.04929
G1 X100.102 Y153.038 E0.05244
G1 X98.646 Y152.131 E0.05377
G1 X97.237 Y151.168 E0.05353
G1 X95.816 Y150.101 E0.05571
G1 X94.571 Y149.089 E0.05030
G1 X93.359 Y148.017 E0.05075
G1 X92.184 Y146.892 E0.05099
G1 X91.018 Y145.679 E0.05275
G1 X89.838 Y144.342 E0.05591
G1 X88.706 Y142.935 E0.05664
G1 X87.793 Y141.707 E0.04796
G1 X86.906 Y140.409 E0.04929
G1 X86.019 Y138.991 E0.05244
G1 X85.178 Y137.515 E0.05327
G1 X84.400 Y136.005 E0.05328
G1 X83.685 Y134.463 E0.05329
G1 X83.034 Y132.886 E0.05348
G1 X82.478 Y131.366 E0.05075
G1 X81.981 Y129.818 E0.05099
G1 X81.534 Y128.205 E0.05248
G1 X81.150 Y126.550 E0.05327
G1 X80.834 Y124.880 E0.05330
G1 X80.586 Y123.167 E0.05425
G1 X80.419 Y121.550 E0.05099
G1 X80.318 Y119.934 E0.05075
G1 X80.281 Y118.253 E0.05273
G1 X80.314 Y116.578 E0.05252
G1 X80.419 Y114.866 E0.05378
G1 X80.598 Y113.153 E0.05399
G1 X80.834 Y111.536 E0.05124
G1 X81.133 Y109.945 E0.05076
G1 X81.508 Y108.314 E0.05248
G1 X81.967 Y106.644 E0.05429
G1 X82.494 Y105.003 E0.05405
G1 X83.076 Y103.421 E0.05286
G1 X83.775 Y101.756 E0.05662
G1 X84.420 Y100.369 E0.04796
G1 X85.140 Y98.971 E0.04929
G1 X85.964 Y97.516 E0.05244
G1 X86.871 Y96.060 E0.05378
G1 X87.830 Y94.657 E0.05327
G1 X88.901 Y93.229 E0.05597
G1 X89.903 Y91.997 E0.04981
G1 X90.985 Y90.772 E0.05124
G1 X92.121 Y89.587 E0.05147
G1 X93.341 Y88.415 E0.05303
G1 X94.647 Y87.263 E0.05462
G1 X96.056 Y86.128 E0.05672
G1 X97.295 Y85.207 E0.04842
G1 X98.606 Y84.312 E0.04976
G1 X100.017 Y83.428 E0.05222
G1 X101.487 Y82.592 E0.05302
G1 X102.997 Y81.813 E0.05328
G1 X104.532 Y81.102 E0.05303
G1 X106.101 Y80.453 E0.05324
G1 X107.636 Y79.891 E0.05124
G1 X109.192 Y79.392 E0.05123
G1 X110.805 Y78.946 E0.05248
G1 X112.444 Y78.565 E0.05277
G1 X114.122 Y78.248 E0.05354
G1 X115.804 Y78.004 E0.05327
G1 X117.445 Y77.834 E0.05173
G1 X119.083 Y77.731 E0.05148
M73 Q0 S64
G1 X120.765 Y77.695 E0.05274
G1 X122.456 Y77.729 E0.05302
G1 X124.152 Y77.834 E0.05329
G1 X125.841 Y78.011 E0.05325
G1 X127.466 Y78.248 E0.05148
G1 X129.072 Y78.550 E0.05124
G1 X130.711 Y78.927 E0.05274
G1 X132.342 Y79.376 E0.05305
G1 X134.080 Y79.932 E0.05720
G1 X133.468 Y78.776 E0.04102
G1 X132.971 Y77.681 E0.03769
G1 X132.568 Y76.627 E0.03539
G1 X132.238 Y75.587 E0.03422
G1 X131.964 Y74.519 E0.03455
G1 X131.749 Y73.411 E0.03539
G1 X131.591 Y72.222 E0.03762
G1 X131.512 Y71.144 E0.03390
G1 X131.495 Y70.052 E0.03424
G1 X131.549 Y68.840 E0.03803
G1 X131.667 Y67.715 E0.03548
G1 X131.853 Y66.593 E0.03566
G1 X132.099 Y65.508 E0.03485
G1 X132.397 Y64.471 E0.03383
G1 X132.749 Y63.461 E0.03354
G1 X133.179 Y62.426 E0.03514
G1 X133.728 Y61.300 E0.03928
G1 X134.256 Y60.366 E0.03364
G1 X134.846 Y59.448 E0.03423
G1 X135.555 Y58.478 E0.03767
G1 X136.285 Y57.598 E0.03585
G1 X137.061 Y56.767 E0.03566
G1 X137.866 Y56.000 E0.03486
G1 X138.689 Y55.302 E0.03383
G1 X139.542 Y54.656 E0.03354
G1 X140.473 Y54.033 E0.03514
G1 X141.564 Y53.393 E0.03966
G1 X142.511 Y52.914 E0.03328
G1 X143.491 Y52.485 E0.03352
G1 X144.639 Y52.062 E0.03838
G1 X145.734 Y51.734 E0.03584
G1 X146.819 Y51.476 E0.03495
G1 X147.912 Y51.283 E0.03483
G1 X148.994 Y51.155 E0.03415
G1 X150.050 Y51.090 E0.03318
G1 X150.870 Y51.081 E0.02572
G1 X152.459 Y51.158 E0.04988
G1 X153.512 Y51.285 E0.03323
G1 X154.552 Y51.467 E0.03311
G1 X155.647 Y51.725 E0.03527
G1 X156.730 Y52.047 E0.03543
G1 X157.880 Y52.468 E0.03841
G1 X158.873 Y52.901 E0.03396
G1 X159.837 Y53.387 E0.03385
G1 X160.904 Y54.008 E0.03871
G1 X161.861 Y54.648 E0.03610
G1 X162.740 Y55.313 E0.03455
G1 X163.579 Y56.028 E0.03455
G1 X164.368 Y56.782 E0.03423
G1 X165.107 Y57.572 E0.03394
G1 X165.865 Y58.486 E0.03723
G1 X166.573 Y59.455 E0.03761
G1 X167.163 Y60.374 E0.03424
G1 X167.701 Y61.328 E0.03434
G1 X168.237 Y62.428 E0.03837
G1 X168.660 Y63.449 E0.03463
G1 X169.023 Y64.489 E0.03455
G1 X169.326 Y65.549 E0.03455
G1 X169.567 Y66.625 E0.03459
G1 X169.748 Y67.726 E0.03499
G1 X169.865 Y68.829 E0.03476
G1 X169.919 Y70.029 E0.03769
G1 X169.902 Y71.136 E0.03471
G1 X169.821 Y72.247 E0.03491
G1 X169.677 Y73.340 E0.03458
G1 X169.461 Y74.470 E0.03608
G1 X169.173 Y75.601 E0.03657
G1 X168.829 Y76.676 E0.03540
G1 X168.428 Y77.716 E0.03493
G1 X167.968 Y78.731 E0.03495
G1 X167.450 Y79.718 E0.03496
G1 X166.875 Y80.673 E0.03496
G1 X166.230 Y81.615 E0.03579
G1 X165.514 Y82.536 E0.03657
G1 X164.786 Y83.366 E0.03462
G1 X164.012 Y84.153 E0.03461
G1 X163.130 Y84.949 E0.03725
G1 X162.266 Y85.639 E0.03467
G1 X161.356 Y86.285 E0.03499
G1 X160.367 Y86.901 E0.03653
G1 X159.373 Y87.440 E0.03544
G1 X158.353 Y87.919 E0.03534
G1 X157.318 Y88.332 E0.03493
G1 X156.262 Y88.685 E0.03491
G1 X155.188 Y88.976 E0.03491
G1 X154.108 Y89.202 E0.03459
G1 X153.004 Y89.368 E0.03499
G1 X151.878 Y89.470 E0.03546
G1 X150.677 Y89.506 E0.03765
G1 X149.410 Y89.468 E0.03977
G1 X148.689 Y89.017 F10800.000
G1 F1200.000
G1 X148.579 Y89.261 E0.00839
G1 X149.162 Y89.815 E0.02524
G1 X150.312 Y91.013 E0.05204
G1 X151.454 Y92.307 E0.05410
G1 X152.569 Y93.692 E0.05576
G1 X153.477 Y94.912 E0.04770
G1 X154.381 Y96.235 E0.05025
G1 X155.264 Y97.648 E0.05223
G1 X156.088 Y99.098 E0.05228
G1 X156.848 Y100.573 E0.05204
G1 X157.553 Y102.093 E0.05254
G1 X158.193 Y103.641 E0.05251
G1 X158.755 Y105.176 E0.05124
G1 X159.257 Y106.739 E0.05148
G1 X159.696 Y108.330 E0.05176
G1 X160.072 Y109.955 E0.05228
G1 X160.381 Y111.594 E0.05230
G1 X160.624 Y113.260 E0.05278
G1 X160.793 Y114.893 E0.05149
G1 X160.895 Y116.532 E0.05148
G1 X160.930 Y118.191 E0.05201
G1 X160.896 Y119.858 E0.05228
G1 X160.793 Y121.522 E0.05229
G1 X160.621 Y123.181 E0.05227
G1 X160.383 Y124.813 E0.05174
G1 X160.079 Y126.427 E0.05149
G1 X159.706 Y128.044 E0.05202
G1 X159.266 Y129.645 E0.05206
G1 X158.747 Y131.264 E0.05331
G1 X158.172 Y132.829 E0.05230
G1 X157.470 Y134.504 E0.05695
G1 X156.831 Y135.878 E0.04749
G1 X156.115 Y137.269 E0.04905
G1 X155.298 Y138.711 E0.05196
G1 X154.404 Y140.146 E0.05303
G1 X153.450 Y141.542 E0.05301
G1 X152.388 Y142.957 E0.05547
G1 X151.390 Y144.184 E0.04959
G1 X150.323 Y145.391 E0.05051
G1 X149.209 Y146.554 E0.05051
G1 X148.007 Y147.709 E0.05226
G1 X146.689 Y148.873 E0.05513
G1 X145.293 Y149.996 E0.05617
G1 X144.078 Y150.900 E0.04750
G1 X142.786 Y151.782 E0.04905
G1 X141.381 Y152.662 E0.05196
G1 X139.918 Y153.494 E0.05277
G1 X138.422 Y154.265 E0.05279
G1 X136.894 Y154.973 E0.05279
G1 X135.339 Y155.615 E0.05275
G1 X133.834 Y156.166 E0.05027
G1 X132.293 Y156.661 E0.05075
G1 X130.694 Y157.103 E0.05199
G1 X129.063 Y157.483 E0.05253
G1 X127.408 Y157.795 E0.05280
G1 X125.711 Y158.041 E0.05375
G1 X124.109 Y158.206 E0.05051
G1 X122.501 Y158.307 E0.05051
G1 X120.835 Y158.344 E0.05225
G1 X119.176 Y158.311 E0.05203
G1 X117.480 Y158.206 E0.05328
G1 X115.790 Y158.030 E0.05325
G1 X114.189 Y157.796 E0.05076
G1 X112.605 Y157.499 E0.05052
G1 X110.989 Y157.127 E0.05200
G1 X109.342 Y156.675 E0.05355
G1 X107.716 Y156.153 E0.05356
G1 X106.149 Y155.576 E0.05234
G1 X104.498 Y154.883 E0.05615
G1 X103.124 Y154.245 E0.04749
G1 X101.733 Y153.529 E0.04905
G1 X100.291 Y152.712 E0.05196
G1 X98.856 Y151.817 E0.05303
G1 X97.460 Y150.863 E0.05301
G1 X96.045 Y149.801 E0.05547
G1 X94.818 Y148.804 E0.04959
G1 X93.611 Y147.737 E0.05051
G1 X92.448 Y146.622 E0.05051
G1 X91.293 Y145.421 E0.05226
G1 X90.129 Y144.102 E0.05513
G1 X89.006 Y142.707 E0.05617
G1 X88.102 Y141.491 E0.04750
G1 X87.220 Y140.200 E0.04905
G1 X86.340 Y138.795 E0.05196
G1 X85.508 Y137.332 E0.05277
G1 X84.737 Y135.835 E0.05279
G1 X84.029 Y134.308 E0.05279
G1 X83.387 Y132.753 E0.05275
G1 X82.836 Y131.247 E0.05027
G1 X82.341 Y129.706 E0.05075
G1 X81.899 Y128.108 E0.05199
G1 X81.519 Y126.476 E0.05253
G1 X81.207 Y124.821 E0.05280
G1 X80.961 Y123.125 E0.05375
G1 X80.796 Y121.522 E0.05051
G1 X80.695 Y119.915 E0.05051
G1 X80.658 Y118.249 E0.05225
G1 X80.691 Y116.590 E0.05203
G1 X80.796 Y114.893 E0.05328
G1 X80.972 Y113.204 E0.05325
G1 X81.206 Y111.602 E0.05076
G1 X81.503 Y110.019 E0.05052
G1 X81.875 Y108.402 E0.05200
G1 X82.327 Y106.756 E0.05355
G1 X82.849 Y105.129 E0.05356
G1 X83.426 Y103.563 E0.05234
G1 X84.119 Y101.911 E0.05615
G1 X84.757 Y100.538 E0.04749
G1 X85.473 Y99.147 E0.04905
G1 X86.290 Y97.705 E0.05196
G1 X87.189 Y96.263 E0.05328
G1 X88.139 Y94.873 E0.05276
G1 X89.201 Y93.459 E0.05546
G1 X90.193 Y92.238 E0.04934
G1 X91.265 Y91.025 E0.05075
G1 X92.385 Y89.856 E0.05075
G1 X93.593 Y88.695 E0.05253
G1 X94.893 Y87.548 E0.05436
G1 X96.290 Y86.424 E0.05621
G1 X97.511 Y85.516 E0.04772
G1 X98.809 Y84.629 E0.04929
G1 X100.214 Y83.750 E0.05197
G1 X101.670 Y82.921 E0.05253
G1 X103.167 Y82.150 E0.05279
G1 X104.687 Y81.446 E0.05254
G1 X106.235 Y80.806 E0.05251
G1 X107.755 Y80.249 E0.05076
G1 X109.303 Y79.752 E0.05099
G1 X110.902 Y79.310 E0.05200
G1 X112.526 Y78.933 E0.05228
G1 X114.188 Y78.619 E0.05305
G1 X115.854 Y78.377 E0.05277
G1 X117.480 Y78.209 E0.05125
G1 X119.103 Y78.108 E0.05099
G1 X120.769 Y78.072 E0.05225
G1 X122.436 Y78.106 E0.05228
G1 X124.117 Y78.210 E0.05279
G1 X125.790 Y78.384 E0.05276
G1 X127.400 Y78.619 E0.05100
G1 X128.991 Y78.918 E0.05076
G1 X130.615 Y79.292 E0.05225
G1 X132.239 Y79.738 E0.05280
G1 X133.850 Y80.255 E0.05306
G1 X134.602 Y80.534 E0.02515
G1 X134.773 Y80.328 E0.00840
G1 X134.322 Y79.584 E0.02724
G1 X133.809 Y78.615 E0.03440
G1 X133.317 Y77.531 E0.03733
G1 X132.922 Y76.498 E0.03468
G1 X132.599 Y75.478 E0.03354
G1 X132.331 Y74.431 E0.03388
G1 X132.122 Y73.356 E0.03434
G1 X131.965 Y72.178 E0.03726
G1 X131.889 Y71.122 E0.03320
G1 X131.872 Y70.063 E0.03321
G1 X131.925 Y68.862 E0.03767
G1 X132.042 Y67.760 E0.03476
G1 X132.224 Y66.660 E0.03496
G1 X132.463 Y65.607 E0.03384
G1 X132.754 Y64.591 E0.03317
G1 X133.103 Y63.591 E0.03320
G1 X133.525 Y62.576 E0.03444
G1 X134.064 Y61.471 E0.03857
G1 X134.582 Y60.557 E0.03293
G1 X135.154 Y59.666 E0.03321
G1 X135.849 Y58.714 E0.03695
G1 X136.571 Y57.843 E0.03549
G1 X137.325 Y57.036 E0.03462
G1 X138.114 Y56.284 E0.03418
G1 X138.921 Y55.599 E0.03316
G1 X139.765 Y54.960 E0.03320
G1 X140.668 Y54.355 E0.03409
G1 X141.750 Y53.722 E0.03929
G1 X142.677 Y53.253 E0.03257
G1 X143.626 Y52.837 E0.03250
G1 X144.764 Y52.418 E0.03802
G1 X145.827 Y52.099 E0.03478
G1 X146.890 Y51.847 E0.03426
G1 X147.962 Y51.657 E0.03415
G1 X149.022 Y51.531 E0.03348
G1 X150.069 Y51.467 E0.03287
G1 X150.858 Y51.458 E0.02474
G1 X152.421 Y51.534 E0.04908
G1 X153.451 Y51.657 E0.03253
G1 X154.481 Y51.838 E0.03278
G1 X155.555 Y52.090 E0.03459
G1 X156.617 Y52.407 E0.03473
G1 X157.745 Y52.820 E0.03768
G1 X158.718 Y53.244 E0.03326
G1 X159.662 Y53.721 E0.03317
G1 X160.709 Y54.331 E0.03799
G1 X161.638 Y54.952 E0.03504
G1 X162.499 Y55.604 E0.03387
G1 X163.322 Y56.304 E0.03387
M73 Q1 S64
G1 X164.096 Y57.043 E0.03355
G1 X164.828 Y57.826 E0.03359
M73 P1 R64
G1 X165.564 Y58.713 E0.03616
G1 X166.258 Y59.664 E0.03690
G1 X166.837 Y60.564 E0.03356
G1 X167.365 Y61.499 E0.03364
G1 X167.891 Y62.578 E0.03766
G1 X168.306 Y63.578 E0.03394
G1 X168.662 Y64.598 E0.03387
G1 X168.959 Y65.637 E0.03387
G1 X169.196 Y66.692 E0.03390
G1 X169.374 Y67.771 E0.03430
G1 X169.489 Y68.862 E0.03441
G1 X169.542 Y70.040 E0.03697
G1 X169.525 Y71.125 E0.03401
G1 X169.445 Y72.214 E0.03423
G1 X169.304 Y73.285 E0.03389
G1 X169.094 Y74.383 E0.03503
G1 X168.809 Y75.502 E0.03622
G1 X168.471 Y76.556 E0.03469
G1 X168.079 Y77.575 E0.03424
G1 X167.627 Y78.570 E0.03426
G1 X167.118 Y79.538 E0.03428
G1 X166.554 Y80.474 E0.03428
G1 X165.928 Y81.388 E0.03474
G1 X165.220 Y82.300 E0.03622
G1 X164.513 Y83.106 E0.03359
G1 X163.755 Y83.877 E0.03391
G1 X162.882 Y84.665 E0.03689
G1 X162.035 Y85.341 E0.03396
G1 X161.142 Y85.974 E0.03430
G1 X160.182 Y86.572 E0.03548
G1 X159.208 Y87.101 E0.03475
G1 X158.208 Y87.571 E0.03465
G1 X157.194 Y87.976 E0.03424
G1 X156.159 Y88.322 E0.03422
G1 X155.105 Y88.608 E0.03423
G1 X154.036 Y88.832 E0.03425
G1 X152.954 Y88.994 E0.03430
G1 X151.850 Y89.094 E0.03477
G1 X150.672 Y89.129 E0.03694
G1 X149.602 Y89.096 E0.03357
G1 X148.749 Y89.022 E0.02684
;WIPE_START
G1 F8640.000
G1 X148.579 Y89.261 E-0.06762
G1 X149.162 Y89.815 E-0.18587
G1 X150.312 Y91.013 E-0.38327
G1 X150.665 Y91.413 E-0.12324
;WIPE_END
G1 E-0.04000 F2100.000
G1 Z0.600 F10800.000
G1 X147.596 Y88.483
G1 Z0.200
G1 E0.80000 F2100.000
G1 F1200.000
G1 X147.475 Y88.731 E0.00866
G1 X148.893 Y90.080 E0.06136
G1 X150.032 Y91.265 E0.05154
G1 X151.163 Y92.546 E0.05358
G1 X152.269 Y93.920 E0.05529
G1 X153.168 Y95.128 E0.04723
G1 X154.064 Y96.438 E0.04977
G1 X154.938 Y97.838 E0.05174
